remix/Media/hq-line.svg

<svg viewBox="0 0 24 24" fill="currentColor" xmlns="http://www.w3.org/2000/svg"><path d="M4 5V19H20V5H4ZM3 3H21C21.5523 3 22 3.44772 22 4V20C22 20.5523 21.5523 21 21 21H3C2.44772 21 2 20.5523 2 20V4C2 3.44772 2.44772 3 3 3ZM7.5 11.25H9.5V9H11V15H9.5V12.75H7.5V15H6V9H7.5V11.25ZM16.25 15V16.5H14.75V15H14C13.4477 15 13 14.5523 13 14V10C13 9.44772 13.4477 9 14 9H17C17.5523 9 18 9.44772 18 10V14C18 14.5523 17.5523 15 17 15H16.25ZM14.5 10.5V13.5H16.5V10.5H14.5Z"/></svg>

<svg viewBox="0 0 24 24" xmlns="http://www.w3.org/2000/svg"><path fill="none" d="M0 0h24v24H0Z"/><path d="M4 5v14h16V5H4ZM3 3h18v0c.55 0 1 .44 1 1v16 0c0 .55-.45 1-1 1H3v0c-.56 0-1-.45-1-1V4v0c0-.56.44-1 1-1Zm4.5 8.25h2V9H11v6H9.5v-2.25h-2V15H6V9h1.5v2.25ZM16.25 15v1.5h-1.5V15H14v0c-.56 0-1-.45-1-1v-4 0c0-.56.44-1 1-1h3v0c.55 0 1 .44 1 1v4 0c0 .55-.45 1-1 1h-.75Zm-1.75-4.5v3h2v-3h-2Z"/></svg>
